X:1
T:Ja-Da
C:Bob Carleton (1918)
F:https://www.youtube.com/watch?v=lSbDfEjt30Q
M:4/4
K:Fmaj
L:1/4
"F" A/2 c3/2-c z | "D7" d/2 A3/2-A z | "G7" A/2G/2A/2G/2 "C7" c A | "F" F2 "C7" z2 |
"F" A/2 c3/2-c z | "D7" d/2 A3/2-A z | "G7" A/2G/2A/2G/2 A _A | "C7" G3 z |
"F" c/2c/2c/2c/2 "Fdim" =B/2B/2B/2B/2 | "Gm7" B/2A/2B/2G/2- "C7" G z |"F" c c "Fdim" =B/2B/2B/2B/2 | "Gm7" B/2A/2B/2G/2-"C7" G/2F/2 G |
"F" A/2 c3/2-c z | "D7" d/2 A3/2-A z | "G7" A/2G/2A/2G/2 "C7" c A | "F" F3 z |]